img/svg/icon-youtube.svg

<svg width="24" height="24" viewBox="0 0 24 24" fill="none" xmlns="http://www.w3.org/2000/svg">
<path fill-rule="evenodd" clip-rule="evenodd" d="M19.792 5.41483C20.6521 5.64589 21.3325 6.32626 21.5635 7.18633C21.9872 8.75244 22 12.0002 22 12.0002C22 12.0002 22 15.2608 21.5764 16.8141C21.3453 17.6741 20.665 18.3545 19.8049 18.5856C18.2516 19.0092 12 19.0092 12 19.0092C12 19.0092 5.74839 19.0092 4.19512 18.5856C3.33504 18.3545 2.65469 17.6741 2.42362 16.8141C2 15.248 2 12.0002 2 12.0002C2 12.0002 2 8.75244 2.41078 7.19917C2.64185 6.33909 3.32221 5.65873 4.18229 5.42767C5.73556 5.00404 11.9872 4.99121 11.9872 4.99121C11.9872 4.99121 18.2388 4.99121 19.792 5.41483ZM15.1836 12.0002L9.99743 15.004V8.99635L15.1836 12.0002Z" fill="black"/>
</svg>

<svg width="24" height="24" viewBox="0 0 24 24" fill="none" xmlns="http://www.w3.org/2000/svg"><path fill-rule="evenodd" clip-rule="evenodd" d="M19.792 5.415c.86.23 1.54.911 1.771 1.771C21.988 8.752 22 12 22 12s0 3.26-.424 4.814a2.519 2.519 0 01-1.771 1.772c-1.553.423-7.805.423-7.805.423s-6.252 0-7.805-.423a2.519 2.519 0 01-1.771-1.772C2 15.248 2 12 2 12s0-3.248.41-4.8a2.522 2.522 0 011.772-1.772c1.554-.424 7.805-.437 7.805-.437s6.252 0 7.805.424zM15.184 12l-5.187 3.004V8.996L15.184 12z" fill="#000"/></svg>
